optimized/20/solid/viewfinder-circle.svg

<svg xmlns="http://www.w3.org/2000/svg" viewBox="0 0 20 20">
  <path d="M4.25 2C3.00736 2 2 3.00736 2 4.25V6.25C2 6.66421 2.33579 7 2.75 7C3.16421 7 3.5 6.66421 3.5 6.25V4.25C3.5 3.83579 3.83579 3.5 4.25 3.5H6.25C6.66421 3.5 7 3.16421 7 2.75C7 2.33579 6.66421 2 6.25 2H4.25Z"/>
  <path d="M13.75 2C13.3358 2 13 2.33579 13 2.75C13 3.16421 13.3358 3.5 13.75 3.5H15.75C16.1642 3.5 16.5 3.83579 16.5 4.25V6.25C16.5 6.66421 16.8358 7 17.25 7C17.6642 7 18 6.66421 18 6.25V4.25C18 3.00736 16.9926 2 15.75 2H13.75Z"/>
  <path d="M3.5 13.75C3.5 13.3358 3.16421 13 2.75 13C2.33579 13 2 13.3358 2 13.75V15.75C2 16.9926 3.00736 18 4.25 18H6.25C6.66421 18 7 17.6642 7 17.25C7 16.8358 6.66421 16.5 6.25 16.5H4.25C3.83579 16.5 3.5 16.1642 3.5 15.75V13.75Z"/>
  <path d="M18 13.75C18 13.3358 17.6642 13 17.25 13C16.8358 13 16.5 13.3358 16.5 13.75V15.75C16.5 16.1642 16.1642 16.5 15.75 16.5H13.75C13.3358 16.5 13 16.8358 13 17.25C13 17.6642 13.3358 18 13.75 18H15.75C16.9926 18 18 16.9926 18 15.75V13.75Z"/>
  <path d="M7 10C7 8.34315 8.34315 7 10 7C11.6569 7 13 8.34315 13 10C13 11.6569 11.6569 13 10 13C8.34315 13 7 11.6569 7 10Z"/>
</svg>

<svg xmlns="http://www.w3.org/2000/svg" viewBox="0 0 20 20" fill="currentColor" aria-hidden="true">
  <path d="M4.25 2A2.25 2.25 0 002 4.25v2a.75.75 0 001.5 0v-2a.75.75 0 01.75-.75h2a.75.75 0 000-1.5h-2zM13.75 2a.75.75 0 000 1.5h2a.75.75 0 01.75.75v2a.75.75 0 001.5 0v-2A2.25 2.25 0 0015.75 2h-2zM3.5 13.75a.75.75 0 00-1.5 0v2A2.25 2.25 0 004.25 18h2a.75.75 0 000-1.5h-2a.75.75 0 01-.75-.75v-2zM18 13.75a.75.75 0 00-1.5 0v2a.75.75 0 01-.75.75h-2a.75.75 0 000 1.5h2A2.25 2.25 0 0018 15.75v-2zM7 10a3 3 0 116 0 3 3 0 01-6 0z"/>
</svg>
